X: 3279
T: The BOTTLE OF CLARET
%R: jig
B: James Kerr "Merry Melodies" v.3 p.30 #279
Z: 2016 John Chambers <jc:trillian.mit.edu>
M: 6/8
L: 1/8
K: G
|:\
G2g dBG | AGA cBA | G2g dBG | AGA BGE |\
G2g dBG | AGA Bcd | cec BdB | AGA BGE :|
|:\
gbg faf | ege def | gfg abc' | bd'b afd |\
gbg faf | ege def | gfe dcB | AGA BGE :|

%%sep 1 1 500
%%sep 1 1 500

